X: 1
T: Lady of the Lake
I: RJ R-83 G reel
%%staffsep	46pt
M: C|
R: reel
K: G
z2 |:\
"G"G,B,DG B2Bc | dBGA B2AB |\
[1,3 "C"c2cB AGFG | "D"AGFE DCB,A, :|\
[2,4 "C"c2cB AGFE | "D"DGGF "G"G2 :|
|: Bc |\
"G"dcBd g2gd | "C"edce a2ae |\
[1,3 "D"f2fg fedf | "A"ed^ce "D"d2Bc :|\
[2,4 "D"fgfe dcBA | "G"G2B2 G2 :|
% text Roaring Jelly  R-83


